public/assets/images/feature/09.svg

<svg width="48" height="56" viewBox="0 0 48 56" fill="none" xmlns="http://www.w3.org/2000/svg">
<path d="M30.7654 32.474C32.1171 31.929 32.3046 31.6515 32.3121 30.1907L32.3138 29.9599C32.3271 28.214 32.1604 27.9674 30.5313 27.3174C30.4324 27.2637 29.9171 27.1464 29.7338 26.709C29.517 26.1954 29.9103 25.6555 30.0696 25.1824C30.4763 24.204 30.3804 23.7065 29.6421 22.9665L29.2846 22.6107C28.0229 21.3474 27.7538 21.2965 26.0871 21.9957C23.8825 22.9202 25.0079 19.6004 22.7054 19.5274C22.5679 19.5233 22.3824 19.5228 21.9838 19.524C20.1438 19.524 19.9104 19.6799 19.2038 21.379C18.3023 23.5462 16.7691 20.4235 15.0996 21.969C15.0145 22.0484 14.6056 22.4556 14.5446 22.5165C13.2521 23.7782 13.1879 24.0682 13.8529 25.6274C13.8872 25.7346 14.2112 26.2965 14.0404 26.7082C13.6718 27.6019 11.4926 27.2623 11.4313 29.104C11.4274 29.2313 11.4268 29.3408 11.4254 29.8415C11.4046 31.6699 11.5654 31.924 13.1521 32.5574L13.3788 32.6482C14.0767 32.929 14.2443 33.3212 13.9604 34.0115C13.8133 34.3706 13.7158 34.6139 13.6004 34.8757C13.2821 35.5907 13.4229 36.2832 13.9963 36.8274C14.0904 36.9165 14.1821 37.0107 14.2729 37.1032L14.4596 37.2932C15.6963 38.554 15.9838 38.6149 17.5571 37.9432L17.7413 37.8649C19.2263 37.2251 19.0748 38.7793 19.6729 39.5282C19.9221 39.8407 20.2971 40.114 20.7263 40.2965C21.1109 40.4618 21.4837 40.3749 21.7563 40.3782C23.5979 40.3782 23.8371 40.2115 24.5438 38.4974C24.8638 37.7215 25.2496 37.5565 26.0279 37.8707C27.3692 38.4429 27.8089 38.6461 28.8954 37.694C29.4213 37.2324 30.3113 36.2382 30.3096 35.4432V35.3182C29.8161 34.1954 29.6472 33.91 29.7646 33.194C29.8322 32.7794 30.2468 32.702 30.7654 32.474ZM28.5013 32.9882C28.3298 34.0367 28.5849 34.5691 29.0088 35.5274C28.8563 35.9657 27.9646 36.934 27.5671 37.074C27.3229 37.0307 27.0571 36.9174 26.7771 36.7974C26.6873 36.7902 24.4032 35.4814 23.3596 38.0099C22.9254 39.064 22.9113 39.0982 21.8354 39.0982C21.4517 39.0982 21.3091 39.1285 21.2288 39.119C20.5372 38.8265 20.5947 38.531 20.3604 37.9724C19.9004 36.8646 19.1556 36.4315 18.3663 36.4315C17.7156 36.4315 17.1684 36.7261 17.0546 36.7657C15.8968 37.262 16.1444 37.097 14.8771 35.899C14.6988 35.7299 14.6738 35.6124 14.7704 35.3949C14.8601 35.192 14.9213 35.0427 15.1429 34.5015C15.7009 33.1486 15.2213 32.0099 13.8563 31.4599C12.6092 30.9847 12.6914 31.0636 12.7071 29.5149C12.7071 29.067 12.6747 28.928 12.9363 28.8157C13.2379 28.6849 13.5438 28.5607 13.8504 28.4365C15.2357 27.8724 15.7073 26.7236 15.1246 25.3457C14.6383 24.2066 14.5891 24.2617 15.4388 23.4324C15.4993 23.3719 15.9079 22.9656 15.9704 22.9074C16.1642 22.7295 16.2313 22.7832 16.8496 23.0474C16.9673 23.0584 19.299 24.4861 20.3854 21.8707C20.8288 20.804 20.8288 20.804 21.9813 20.804C22.7801 20.8015 22.8876 20.7653 22.9988 21.0257C23.1079 21.279 23.2129 21.534 23.3438 21.849C23.9505 23.3158 25.0864 23.8002 26.5829 23.1757C27.7041 22.7032 27.5894 22.7263 28.7363 23.8707C29.151 24.2864 29.1092 24.158 28.5971 25.3857C28.0645 26.6667 28.5801 27.913 29.8538 28.4249C31.0495 28.902 31.0426 28.8417 31.0338 29.9499C31.0328 30.1258 31.0414 30.8505 30.9838 30.954C30.9075 31.0488 30.2649 31.2951 30.1454 31.3432C29.5246 31.5874 28.6746 31.9224 28.5013 32.9882Z" fill="#0F62FE"/>
<path d="M25.672 26.9004L22.6203 25.1387C22.157 24.8704 21.582 24.8704 21.1187 25.1387L18.067 26.9004C17.6037 27.1679 17.3162 27.6662 17.3162 28.2012V31.7246C17.3162 32.2596 17.6037 32.7579 18.067 33.0254L21.1195 34.7887C21.5919 35.0589 22.1651 35.0499 22.6203 34.7879L25.672 33.0254C26.1362 32.7571 26.4237 32.2587 26.4237 31.7246V28.2012C26.4237 27.6671 26.1362 27.1687 25.672 26.9004ZM25.1437 31.7246C25.1437 31.8037 25.1012 31.8771 25.032 31.9171L21.9812 33.6788C21.9128 33.7188 21.827 33.7179 21.7587 33.6796L18.707 31.9171C18.6387 31.8779 18.5962 31.8037 18.5962 31.7246V28.2012C18.5962 28.1221 18.6387 28.0479 18.707 28.0087L21.7587 26.2471C21.827 26.2071 21.912 26.2071 21.9803 26.2471L25.032 28.0087C25.1012 28.0487 25.1437 28.1221 25.1437 28.2012V31.7246Z" fill="#0F62FE"/>
<path d="M21.4926 28.2004C21.3293 28.0817 21.0865 28.0868 20.9269 28.2004C20.7131 28.3518 20.7281 28.5063 19.5537 30.9821C19.414 31.3021 19.6 31.5125 19.877 31.5125C20.2368 31.5125 20.2543 31.2672 20.4666 30.7994H21.9507C22.1283 31.1809 22.1725 31.5125 22.5635 31.5125C22.8751 31.5125 23.0024 31.2672 22.8683 30.9821C21.66 28.4431 21.6982 28.3491 21.4926 28.2004ZM21.2038 29.06H21.2131L21.6628 30.1343H20.7541L21.2038 29.06Z" fill="#0F62FE"/>
<path d="M23.3127 28.0868C23.1509 28.2251 23.1459 28.5412 23.3127 28.6821C23.4748 28.819 23.8343 28.824 24.0023 28.6821C24.1677 28.5424 24.1633 28.2245 24.0023 28.0868C23.9206 28.0178 23.4741 27.9504 23.3127 28.0868Z" fill="#0F62FE"/>
<path d="M23.3482 29.2312C23.1732 29.4207 23.2705 29.6606 23.2429 31.0523C23.2429 31.3578 23.3956 31.5027 23.6597 31.5027C23.9424 31.5027 24.0773 31.3305 24.0773 31.0523C24.0479 29.6699 24.1509 29.4236 23.967 29.2312C23.8937 29.1546 23.484 29.0822 23.3482 29.2312Z" fill="#0F62FE"/>
<path d="M7.91672 14.7051V13.1009C7.91672 12.7476 7.63005 12.4609 7.27672 12.4609C6.92339 12.4609 6.63672 12.7476 6.63672 13.1009V14.7051C6.63672 15.5334 7.31089 16.2076 8.13922 16.2076H21.2292V17.8693C21.2292 18.2226 21.5159 18.5093 21.8692 18.5093C22.2226 18.5093 22.5092 18.2226 22.5092 17.8693V16.2076H35.5992C36.4276 16.2076 37.1017 15.5334 37.1017 14.7051V13.1009C37.1017 12.7476 36.8151 12.4609 36.4617 12.4609C36.1084 12.4609 35.8217 12.7476 35.8217 13.1009V14.7051C35.8217 14.8276 35.7217 14.9276 35.5992 14.9276H8.13922C8.01672 14.9276 7.91672 14.8276 7.91672 14.7051Z" fill="#0F62FE"/>
<path d="M1.71566 8.43614L6.93733 11.7128C7.1449 11.8423 7.40816 11.8433 7.61733 11.7128L12.839 8.43614C13.2386 8.18462 13.2385 7.6026 12.839 7.35113L11.6765 6.62197C11.3765 6.4353 10.9815 6.52447 10.794 6.82447C10.6065 7.12363 10.6973 7.51864 10.9965 7.70697L11.2948 7.89364L7.27733 10.4145L3.25983 7.89364L3.7215 7.60447C4.02066 7.41614 4.1115 7.02113 3.924 6.72197C3.7365 6.4228 3.34233 6.33197 3.0415 6.51947L1.71566 7.35113C1.31609 7.60265 1.31617 8.18467 1.71566 8.43614Z" fill="#0F62FE"/>
<path d="M6.93733 7.78969C7.1449 7.91921 7.40816 7.92021 7.61733 7.78969L12.839 4.51302C13.2386 4.2615 13.2385 3.67948 12.839 3.42802L7.61733 0.152188C7.409 0.0221875 7.14566 0.0221875 6.93733 0.152188L1.71566 3.42802C1.31609 3.67954 1.31617 4.26156 1.71566 4.51302L6.93733 7.78969ZM7.27733 1.45052L11.2948 3.97052L7.27733 6.49135L3.25983 3.97052L7.27733 1.45052Z" fill="#0F62FE"/>
<path d="M33.1095 6.72197C32.9212 6.4228 32.527 6.33197 32.227 6.51947L30.9012 7.35113C30.5016 7.60265 30.5017 8.18467 30.9012 8.43614L36.1229 11.7128C36.3304 11.8423 36.5937 11.8433 36.8029 11.7128L42.0245 8.43614C42.4241 8.18462 42.424 7.6026 42.0245 7.35113L40.862 6.62197C40.5612 6.4353 40.167 6.52447 39.9795 6.82447C39.792 7.12363 39.8829 7.51864 40.182 7.70697L40.4804 7.89364L36.4629 10.4145L32.4454 7.89364L32.907 7.60447C33.2062 7.41614 33.297 7.02113 33.1095 6.72197Z" fill="#0F62FE"/>
<path d="M36.1229 0.152187L30.9012 3.42802C30.5016 3.67954 30.5017 4.26156 30.9012 4.51302L36.1229 7.78969C36.3304 7.91921 36.5937 7.92021 36.8029 7.78969L42.0245 4.51302C42.4241 4.2615 42.424 3.67948 42.0245 3.42802L36.8029 0.152187C36.5945 0.0221875 36.3312 0.0221875 36.1229 0.152187ZM36.4629 6.49135L32.4454 3.97052L36.4629 1.45052L40.4804 3.97052L36.4629 6.49135Z" fill="#0F62FE"/>
<path d="M43.1821 41.9556H32.8396C32.7154 41.9556 32.6179 41.8581 32.6179 41.7339V35.7689C32.6179 35.4156 32.3312 35.1289 31.9779 35.1289C31.6246 35.1289 31.3379 35.4156 31.3379 35.7689V41.7339C31.3379 42.5622 32.0112 43.2356 32.8396 43.2356H43.1821C43.3062 43.2356 43.4037 43.3331 43.4037 43.4581V49.1411C42.0578 49.4354 41.0454 50.6338 41.0454 52.0672C41.0454 53.7197 42.3904 55.0647 44.0429 55.0647C45.6962 55.0647 47.0412 53.7197 47.0412 52.0672C47.0412 50.6343 46.0295 49.4364 44.6837 49.1416V43.4581C44.6837 42.6297 44.0104 41.9556 43.1821 41.9556ZM45.7612 52.0672C45.7612 53.0139 44.9904 53.7847 44.0429 53.7847C43.0962 53.7847 42.3254 53.0139 42.3254 52.0672C42.3254 51.1243 43.0893 50.3576 44.0297 50.3503C44.0347 50.3504 44.0388 50.3531 44.0437 50.3531C44.0485 50.3531 44.0525 50.3505 44.0572 50.3504C44.998 50.3583 45.7612 51.1246 45.7612 52.0672Z" fill="#0F62FE"/>
<path d="M18.6071 40.5234C18.2538 40.5234 17.9671 40.8101 17.9671 41.1634V46.784C16.6192 47.0771 15.6055 48.2764 15.6055 49.7101C15.6055 51.3634 16.9505 52.7084 18.6038 52.7084C20.2563 52.7084 21.6013 51.3634 21.6013 49.7101C21.6013 48.2789 20.5909 47.082 19.2471 46.7861V41.1634C19.2471 40.8101 18.9605 40.5234 18.6071 40.5234ZM20.3213 49.7101C20.3213 50.6576 19.5505 51.4284 18.6038 51.4284C17.6563 51.4284 16.8855 50.6576 16.8855 49.7101C16.8855 48.7634 17.6563 47.9926 18.6038 47.9926C19.5505 47.9926 20.3213 48.7634 20.3213 49.7101Z" fill="#0F62FE"/>
<path d="M26.4545 41.0977C26.1012 41.0977 25.8145 41.3843 25.8145 41.7377V50.026C24.4691 50.3206 23.457 51.5185 23.457 52.951C23.457 54.6043 24.802 55.9493 26.4545 55.9493C28.1079 55.9493 29.4529 54.6043 29.4529 52.951C29.4529 51.5184 28.4407 50.3204 27.0945 50.0259V41.7377C27.0945 41.3843 26.8079 41.0977 26.4545 41.0977ZM28.1729 52.951C28.1729 53.8985 27.402 54.6693 26.4545 54.6693C25.5079 54.6693 24.737 53.8985 24.737 52.951C24.737 52.0043 25.5079 51.2335 26.4545 51.2335C27.402 51.2335 28.1729 52.0043 28.1729 52.951Z" fill="#0F62FE"/>
<path d="M3.95453 54.7332C5.60703 54.7332 6.95203 53.3882 6.95203 51.7348C6.95203 50.3021 5.93964 49.1038 4.5937 48.8096V44.1082C4.5937 43.984 4.6912 43.8865 4.8162 43.8865H12.4362C13.2645 43.8865 13.9379 43.2123 13.9379 42.384V38.9798C13.9379 38.6265 13.6512 38.3398 13.2979 38.3398C12.9445 38.3398 12.6579 38.6265 12.6579 38.9798V42.384C12.6579 42.5048 12.5562 42.6065 12.4362 42.6065H4.8162C3.98786 42.6065 3.3137 43.2798 3.3137 44.1082V48.8101C1.96859 49.1051 0.957031 50.3027 0.957031 51.7348C0.957031 53.3882 2.30203 54.7332 3.95453 54.7332ZM3.94021 50.0188C3.94495 50.0189 3.94891 50.0215 3.9537 50.0215C3.95865 50.0215 3.96276 50.0188 3.96771 50.0187C4.90812 50.026 5.67203 50.7927 5.67203 51.7348C5.67203 52.6823 4.9012 53.4532 3.95453 53.4532C3.00786 53.4532 2.23703 52.6823 2.23703 51.7348C2.23703 50.7931 3.00026 50.0268 3.94021 50.0188Z" fill="#0F62FE"/>
</svg>

<svg xmlns="http://www.w3.org/2000/svg" width="48" height="56" fill="none" viewBox="0 0 48 56"><path fill="#0f62fe" d="M30.765 32.474c1.352-.545 1.54-.822 1.547-2.283l.002-.231c.013-1.746-.154-1.993-1.783-2.643-.099-.053-.614-.17-.797-.608-.217-.514.176-1.053.336-1.527.406-.978.31-1.476-.428-2.215l-.357-.356c-1.262-1.264-1.531-1.314-3.198-.615-2.204.924-1.08-2.396-3.382-2.469a25 25 0 0 0-.721-.003c-1.84 0-2.074.156-2.78 1.855-.902 2.167-2.435-.956-4.104.59-.085.08-.494.487-.555.547-1.293 1.262-1.357 1.552-.692 3.111.034.108.358.67.187 1.081-.368.894-2.547.554-2.609 2.396-.004.127-.004.237-.006.738-.02 1.828.14 2.082 1.727 2.715l.227.091c.698.281.865.673.581 1.363-.147.36-.244.603-.36.865-.318.715-.177 1.407.396 1.951q.14.136.277.276l.187.19c1.236 1.261 1.524 1.322 3.097.65l.184-.078c1.485-.64 1.334.914 1.932 1.663.25.313.624.586 1.053.769.385.165.758.078 1.03.081 1.842 0 2.081-.166 2.788-1.88.32-.776.706-.941 1.484-.627 1.341.572 1.78.775 2.867-.177.526-.462 1.416-1.456 1.415-2.25v-.126c-.494-1.123-.663-1.408-.545-2.124.067-.415.482-.492 1-.72m-2.264.514c-.171 1.049.084 1.581.508 2.54-.153.438-1.044 1.406-1.442 1.546-.244-.043-.51-.157-.79-.277-.09-.007-2.374-1.316-3.417 1.213-.435 1.054-.449 1.088-1.525 1.088-.383 0-.526.03-.606.021-.692-.292-.634-.588-.869-1.147-.46-1.107-1.204-1.54-1.994-1.54-.65 0-1.198.294-1.311.334-1.158.496-.91.331-2.178-.867-.178-.17-.203-.287-.107-.504.09-.203.151-.352.373-.894.558-1.352.078-2.491-1.287-3.041-1.247-.475-1.165-.396-1.149-1.945 0-.448-.032-.587.23-.7q.452-.193.913-.379c1.386-.564 1.857-1.712 1.275-3.09-.487-1.14-.536-1.084.314-1.914.06-.06.469-.466.531-.525.194-.177.261-.124.88.14.117.011 2.449 1.44 3.535-1.176.444-1.067.444-1.067 1.596-1.067.8-.002.907-.039 1.018.222.109.253.214.508.345.823.607 1.467 1.742 1.951 3.239 1.327 1.121-.473 1.006-.45 2.153.695.415.415.373.287-.139 1.515-.533 1.28-.017 2.527 1.257 3.039 1.195.477 1.189.417 1.18 1.525-.001.176.007.9-.05 1.004-.077.095-.72.341-.839.39-.62.243-1.47.578-1.644 1.644"/><path fill="#0f62fe" d="m25.672 26.9-3.052-1.76a1.5 1.5 0 0 0-1.501 0l-3.052 1.76c-.463.268-.75.766-.75 1.301v3.524c0 .535.287 1.033.75 1.3l3.052 1.764a1.51 1.51 0 0 0 1.501-.001l3.052-1.763c.464-.268.752-.766.752-1.3V28.2c0-.534-.288-1.032-.752-1.3m-.528 4.825a.22.22 0 0 1-.112.192l-3.05 1.762a.23.23 0 0 1-.223 0l-3.052-1.762a.22.22 0 0 1-.11-.192V28.2c0-.079.042-.153.11-.192l3.052-1.762a.22.22 0 0 1 .221 0l3.052 1.762a.22.22 0 0 1 .112.192z"/><path fill="#0f62fe" d="M21.493 28.2a.5.5 0 0 0-.566 0c-.214.152-.199.306-1.373 2.782-.14.32.046.53.323.53.36 0 .377-.245.59-.713h1.484c.177.382.221.713.613.713.311 0 .438-.245.304-.53-1.208-2.539-1.17-2.633-1.375-2.782m-.29.86h.01l.45 1.074h-.909zm2.11-.973c-.162.138-.167.454 0 .595.162.137.521.142.69 0 .165-.14.16-.457 0-.595-.082-.07-.529-.137-.69 0m.035 1.144c-.175.19-.078.43-.105 1.821 0 .306.153.45.417.45.282 0 .417-.171.417-.45-.03-1.382.074-1.628-.11-1.82-.073-.077-.483-.15-.619 0M7.917 14.705v-1.604a.64.64 0 0 0-1.28 0v1.604c0 .828.674 1.503 1.502 1.503h13.09v1.661a.64.64 0 0 0 1.28 0v-1.661H35.6c.829 0 1.503-.675 1.503-1.503v-1.604a.64.64 0 0 0-1.28 0v1.604c0 .123-.1.223-.223.223H8.14a.223.223 0 0 1-.222-.223M1.716 8.436l5.221 3.277c.208.13.471.13.68 0l5.222-3.277a.64.64 0 0 0 0-1.085l-1.162-.729a.64.64 0 0 0-.68 1.085l.298.187-4.018 2.52-4.017-2.52.462-.29a.641.641 0 0 0-.68-1.085l-1.326.832a.64.64 0 0 0 0 1.085"/><path fill="#0f62fe" d="M6.937 7.79c.208.13.471.13.68 0l5.222-3.277a.64.64 0 0 0 0-1.085L7.617.152a.64.64 0 0 0-.68 0L1.716 3.428a.64.64 0 0 0 0 1.085zm.34-6.34 4.018 2.52-4.018 2.521-4.017-2.52zM33.11 6.722a.64.64 0 0 0-.883-.203l-1.326.832a.64.64 0 0 0 0 1.085l5.222 3.277c.207.13.47.13.68 0l5.222-3.277a.64.64 0 0 0 0-1.085l-1.163-.729a.64.64 0 0 0-.68 1.085l.298.187-4.017 2.52-4.018-2.52.462-.29a.64.64 0 0 0 .203-.882"/><path fill="#0f62fe" d="M36.123.152 30.9 3.428a.64.64 0 0 0 0 1.085l5.222 3.277c.207.13.47.13.68 0l5.222-3.277a.64.64 0 0 0 0-1.085L36.803.152a.64.64 0 0 0-.68 0m.34 6.34L32.445 3.97l4.018-2.52 4.017 2.52zm6.719 35.464H32.84a.22.22 0 0 1-.222-.222v-5.965a.64.64 0 0 0-1.28 0v5.965c0 .828.673 1.502 1.502 1.502h10.342a.22.22 0 0 1 .222.222v5.683a3 3 0 0 0-2.359 2.926 3 3 0 0 0 2.998 2.998 3 3 0 0 0 2.998-2.998 3 3 0 0 0-2.357-2.925v-5.684c0-.828-.674-1.502-1.502-1.502m2.58 10.111a1.72 1.72 0 0 1-1.72 1.718 1.72 1.72 0 0 1-1.717-1.718c0-.943.764-1.71 1.705-1.717l.014.003.013-.003a1.72 1.72 0 0 1 1.704 1.717M18.607 40.523a.64.64 0 0 0-.64.64v5.621a3 3 0 0 0-2.361 2.926 3 3 0 0 0 2.998 2.998A3 3 0 0 0 21.6 49.71a3 3 0 0 0-2.354-2.924v-5.623a.64.64 0 0 0-.64-.64m1.714 9.187a1.72 1.72 0 0 1-1.717 1.718 1.72 1.72 0 0 1-1.718-1.718 1.719 1.719 0 0 1 3.435 0m6.135-8.612a.64.64 0 0 0-.64.64v8.288a3 3 0 0 0-2.358 2.925 3 3 0 0 0 2.997 2.998 3 3 0 0 0 2.999-2.998 3 3 0 0 0-2.358-2.925v-8.288a.64.64 0 0 0-.64-.64m1.718 11.853a1.72 1.72 0 0 1-1.718 1.718 1.72 1.72 0 0 1-1.718-1.718c0-.947.77-1.718 1.718-1.718a1.72 1.72 0 0 1 1.718 1.718M3.955 54.733a3 3 0 0 0 2.997-2.998 3 3 0 0 0-2.358-2.925v-4.702a.22.22 0 0 1 .222-.221h7.62c.829 0 1.502-.675 1.502-1.503V38.98a.64.64 0 0 0-1.28 0v3.404c0 .12-.102.222-.222.222h-7.62c-.828 0-1.502.674-1.502 1.502v4.702a3 3 0 0 0-2.357 2.925 3 3 0 0 0 2.998 2.998M3.94 50.02l.014.003.014-.003a1.72 1.72 0 0 1 1.704 1.716 1.72 1.72 0 0 1-1.717 1.718 1.72 1.72 0 0 1-1.718-1.718A1.72 1.72 0 0 1 3.94 50.02"/></svg>
